X:89
T:Green besom- Huggins
%%VWML:SBG-1-2-25-0
F:http://www.vwml.org/record/SBG/1/2/25
Z:Original Sibelius transcriptions by M. & S. Graebe
L:1/4
M:2/4
I:linebreak $
K:G
V:1 treble nm="P1"
V:1
 G | GGAA/G/ | F D D3/2 D/ | G A B c | d3 d/B/ | cABG | FAAA | AdcA | G3 G | G d d d |$ %10
 d B B d/c/ | B G A B | c3 d | G d d e | d c c3/2 A/ | GGFE | D2"^chorus" c2 | dBAG |$ FD z2 | %19
 G G AG | F D2 z | GABc | d3 z | c3/2 A/ B G/ G/ | F D3 | Ad d/B/ A | G4 | %27

